X:1
T:Kitty Clyde's -- Reel
R:reel
B:Ryan's Mammoth Collection
N: 275
Z: Contributed by Ray Davies,  ray:davies99.freeserve.co.uk
M:C|
L:1/8
K:G
ud|\
g2 (dc) B2 GB | (Aa)ag fdef | gfgd ecdB | cAdc BG Gd |
g2 (dc) B2 GB | (Aa)ag fdef | gfgd ecdB | cAdc BG G :|
|:uc|\
(BG)(DG) EGDG | ABcA cedc | (BG)(DG) EGce | dBcA BGGc |
(BG)(DG) EGDG | ABcB cedc | BdgB ceag | fdef g2 z:|
